public/images/arrow-dark.svg

<svg width="24" height="24" viewBox="0 0 24 24" fill="none" xmlns="http://www.w3.org/2000/svg">
<path fill-rule="evenodd" clip-rule="evenodd" d="M19.4401 11.0001C17.0996 11.0001 14.9665 8.77909 14.9665 6.34009V5.34009H13.0465V6.34009C13.0465 8.11409 13.7934 9.77809 14.9656 11.0001H3.12012V13.0001H14.9656C13.7934 14.2221 13.0465 15.8861 13.0465 17.6601V18.6601H14.9665V17.6601C14.9665 15.2211 17.0996 13.0001 19.4401 13.0001H20.4001V11.0001H19.4401Z" fill="#161616"/>
</svg>

<?xml version="1.0" encoding="UTF-8"?>
<svg id="Layer_1" data-name="Layer 1" xmlns="http://www.w3.org/2000/svg" viewBox="0 0 24 24">
  <defs>
    <style>
      .cls-1 {
        fill: #131114;
        fill-rule: evenodd;
      }
    </style>
  </defs>
  <path class="cls-1" d="M19.44,11c-2.34,0-4.47-2.22-4.47-4.66v-1h-1.92v1c0,1.77.75,3.44,1.92,4.66H3.12v2h11.85c-1.17,1.22-1.92,2.89-1.92,4.66v1h1.92v-1c0-2.44,2.13-4.66,4.47-4.66h.96v-2h-.96Z"/>
</svg>
